src/assets/svg/sun.svg

<svg width="20px" height="20px" viewBox="0 0 20 20" version="1.1"
    xmlns="http://www.w3.org/2000/svg"
    xmlns:xlink="http://www.w3.org/1999/xlink">
    <title>sun</title>
    <g id="Page-1" stroke="none" stroke-width="1" fill="none" fill-rule="evenodd">
        <g id="sun" fill="#000000" fill-rule="nonzero">
            <path d="M3.64,15 L2.93,15.71 C2.54227641,16.1000375 2.54227641,16.7299625 2.93,17.12 C3.32003745,17.5077236 3.94996255,17.5077236 4.34,17.12 L5.05,16.41 C5.3897768,16.0132397 5.36693227,15.4218058 4.99756322,15.0524368 C4.62819417,14.6830677 4.03676028,14.6602232 3.64,15 L3.64,15 Z M3,10 C3,9.44771525 2.55228475,9 2,9 L1,9 C0.44771525,9 0,9.44771525 0,10 C0,10.5522847 0.44771525,11 1,11 L2,11 C2.55228475,11 3,10.5522847 3,10 Z M10,3 C10.5522847,3 11,2.55228475 11,2 L11,1 C11,0.44771525 10.5522847,0 10,0 C9.44771525,0 9,0.44771525 9,1 L9,2 C9,2.55228475 9.44771525,3 10,3 Z M3.64,5.05 C3.82626064,5.23474416 4.07766012,5.33889538 4.34,5.34001674 C4.60580298,5.34153676 4.86128117,5.23718651 5.05,5.05 C5.43772359,4.65996255 5.43772359,4.03003745 5.05,3.64 L4.34,2.93 C3.94323972,2.5902232 3.35180583,2.61306773 2.98243678,2.98243678 C2.61306773,3.35180583 2.5902232,3.94323972 2.93,4.34 L3.64,5.05 Z M15.64,5.34 C15.9023399,5.33889538 16.1537394,5.23474416 16.34,5.05 L17.05,4.34 C17.3353762,4.09561012 17.4596819,3.7118816 17.3718101,3.34658103 C17.2839383,2.98128045 16.9987195,2.69606167 16.633419,2.60818987 C16.2681184,2.52031806 15.8843899,2.64462384 15.64,2.93 L15,3.64 C14.6122764,4.03003745 14.6122764,4.65996255 15,5.05 C15.1762929,5.22536187 15.4115961,5.32875266 15.66,5.34 L15.64,5.34 Z M19,9 L18,9 C17.4477153,9 17,9.44771525 17,10 C17,10.5522847 17.4477153,11 18,11 L19,11 C19.5522847,11 20,10.5522847 20,10 C20,9.44771525 19.5522847,9 19,9 Z M10,17 C9.44771525,17 9,17.4477153 9,18 L9,19 C9,19.5522847 9.44771525,20 10,20 C10.5522847,20 11,19.5522847 11,19 L11,18 C11,17.4477153 10.5522847,17 10,17 Z M16.36,15 C15.9696508,14.7828764 15.4826446,14.8509562 15.1668004,15.1668004 C14.8509562,15.4826446 14.7828764,15.9696508 15,16.36 L15.71,17.07 C16.1000375,17.4577236 16.7299625,17.4577236 17.12,17.07 C17.5077236,16.6799625 17.5077236,16.0500375 17.12,15.66 L16.36,15 Z M10,4.5 C6.96243388,4.5 4.5,6.96243388 4.5,10 C4.5,13.0375661 6.96243388,15.5 10,15.5 C13.0375661,15.5 15.5,13.0375661 15.5,10 C15.4944963,6.96471651 13.0352835,4.5055037 10,4.5 Z M10,13.5 C8.58438214,13.5 7.30815514,12.6472524 6.76642164,11.339392 C6.22468814,10.0315316 6.52413328,8.52611925 7.52512627,7.52512627 C8.52611925,6.52413328 10.0315316,6.22468814 11.339392,6.76642164 C12.6472524,7.30815514 13.5,8.58438214 13.5,10 C13.5,11.9329966 11.9329966,13.5 10,13.5 L10,13.5 Z" id="Shape"></path>
        </g>
    </g>
</svg>

<svg width="1024" height="1024" viewBox="0 0 20 20"
    xmlns="http://www.w3.org/2000/svg">
    <path d="m3.64 15-.71.71a1 1 0 0 0 0 1.41 1 1 0 0 0 1.41 0l.71-.71A1 1 0 0 0 3.64 15ZM3 10a1 1 0 0 0-1-1H1a1 1 0 1 0 0 2h1a1 1 0 0 0 1-1Zm7-7a1 1 0 0 0 1-1V1a1 1 0 0 0-2 0v1a1 1 0 0 0 1 1ZM3.64 5.05a1 1 0 0 0 1.41 0 1 1 0 0 0 0-1.41l-.71-.71a1 1 0 0 0-1.41 1.41l.71.71Zm12 .29a1 1 0 0 0 .7-.29l.71-.71a1 1 0 1 0-1.41-1.41l-.64.71a1 1 0 0 0 0 1.41 1 1 0 0 0 .66.29h-.02ZM19 9h-1a1 1 0 0 0 0 2h1a1 1 0 0 0 0-2Zm-9 8a1 1 0 0 0-1 1v1a1 1 0 0 0 2 0v-1a1 1 0 0 0-1-1Zm6.36-2A1 1 0 0 0 15 16.36l.71.71a1 1 0 0 0 1.41 0 1 1 0 0 0 0-1.41l-.76-.66ZM10 4.5a5.5 5.5 0 1 0 5.5 5.5A5.51 5.51 0 0 0 10 4.5Zm0 9a3.5 3.5 0 1 1 0-7 3.5 3.5 0 0 1 0 7Z" fill="#000" fill-rule="nonzero"/>
</svg>
